X: 29292
T: New Road, The
R: reel
M: 4/4
K: Dmajor
DFED dfed|cAGF EFGE|DFED dfed|cAGE AFGE|
DFED dfed|cAGF Ec c2|DFED dfed|cAGE FD D2||
defg afdB|cdef gecA|defg agfa|gecd eddf|
afdf afdf|gece gfge|defg agfa|gecd ed d2||
fefg fagf|eAce g2 ag|fede fage|fdec Adde|
fede fagf|eAce g2 fg|afge dfed|cAGE FD D2||

